urcenter/urcenter/img/icons/logo-section.svg

<svg width="82" height="59" viewBox="0 0 82 59" fill="none" xmlns="http://www.w3.org/2000/svg">
<path d="M29.3293 54.3175H44.7219V59H24.6491V0H29.3293V54.3175Z" fill="#3B1D8F"/>
<path d="M4.6802 0H0V59H4.6802V0Z" fill="#3B1D8F"/>
<path d="M53.0423 29.552C53.0423 43.1834 64.1708 54.3175 77.7953 54.3175V59C61.4666 59 48.2581 45.7848 48.2581 29.552C48.3621 13.2152 61.5706 0 77.8993 0V4.68254C64.1708 4.68254 53.0423 15.8166 53.0423 29.552Z" fill="#3B1D8F"/>
<path d="M81.2275 29.448C81.2275 31.321 79.7714 32.7778 77.8993 32.7778C76.0273 32.7778 74.5712 31.321 74.5712 29.448C74.5712 27.575 76.0273 26.1182 77.8993 26.1182C79.6674 26.1182 81.2275 27.679 81.2275 29.448Z" fill="#3B1D8F"/>
</svg>

<svg width="82" height="59" fill="none" xmlns="http://www.w3.org/2000/svg"><path d="M29.33 54.318h15.392V59H24.649V0h4.68v54.318zM4.68 0H0v59h4.68V0zm48.362 29.552c0 13.631 11.129 24.766 24.753 24.766V59c-16.328 0-29.537-13.215-29.537-29.448C48.362 13.215 61.571 0 77.9 0v4.683c-13.728 0-24.857 11.134-24.857 24.869z" fill="#3B1D8F"/><path d="M81.228 29.448c0 1.873-1.457 3.33-3.329 3.33s-3.328-1.457-3.328-3.33 1.456-3.33 3.328-3.33c1.768 0 3.329 1.561 3.329 3.33z" fill="#3B1D8F"/></svg>
